X: 1
T: March of Saint Timothy
% Nottingham Music Database
C: Judi Morningstar, 1992
D: "Michigan Spring" from the Detroit Country Dancers
M: 2/4
L: 1/4
K: G
d/ \
| "G"B3/4c/4 d/B/ | "D"A3/4B/4 c/A/ \
| "Em"G3/4A/4 B/G/ | "Bm"G/F/ E/D/ \
| "C"E3/4F/4 G/E/ | "G"D/G/ B/d/ \
|[1"Am"c3/4B/4 "A7"A/G/ | "D7"F/A/ D/c/ \
:|2"Am"c/4B/4A/ "D7"F/A/ | "G"G3/ |]
d/4d/4 \
| "D7"c/d/ A/c/ | F/A/ D/d/4d/4 \
| "G"B/d/ G/B/ | D/G/ B,/d/4d/4 \
| "D7"c/d/ A/c/ | F/A/ D/d/4d/4 \
| "G"B/D/ E/F/ | G/A/ B/ ||
d/4d/4 \
| "D7"c/d/ A/c/ | F/A/ D/d/4d/4 \
| "G"B/d/ G/B/ | D/G/ B,/D/ \
| "C"E3/4F/4 G/E/ | "G"D/G/ B/d/ \
| "Am"c/4B/4A/ "D7"F/A/ | "G"G3/ |]

%%sep 1 1 500
